Adwaita++-Dark/actions/22/view-certificate-add.svg

<svg height="22" viewBox="0 0 22 22" width="22" xmlns="http://www.w3.org/2000/svg">
  <path d="m0 1v13.996094c3-.0011 6 .00029 9 .001953v-6.0000001h6v.0019531h1v-7.9960938c-5.3333.002-10.667-.0059062-16-.0039062zm9 2h6v1h-6zm-5.5 1c.831 0 1.5.6673669 1.5 1.4980469v1.5h1v3h-5v-3h1v-1.5c0-.83073.669-1.4980469 1.5-1.4980469zm0 .9980469c-.277 0-.5.22309-.5.5v1.5h1v-1.5c0-.27691-.223-.5-.5-.5zm5.5 1h6v1h-6zm3 4.0019531v2h-2v2h2v2h2v-2h2v-2h-2v-2z" fill="#e6ddff" transform="translate(3 3)"/>
</svg>

<svg xmlns="http://www.w3.org/2000/svg" width="22" height="22" viewBox="0 0 22 22">
 <defs>
  <style id="current-color-scheme" type="text/css">
   .ColorScheme-Text { color:#E6DDFF; } .ColorScheme-Highlight { color:#4285f4; }
  </style>
 </defs>
 <path style="fill:currentColor" class="ColorScheme-Text" d="M 0 1 L 0 14.996094 C 3 14.994994 6 14.996384 9 14.998047 L 9 8.9980469 L 15 8.9980469 L 15 9 L 16 9 L 16 1.0039062 C 10.6667 1.0059062 5.333 0.998 0 1 z M 9 3 L 15 3 L 15 4 L 9 4 L 9 3 z M 3.5 4 C 4.331 4 5 4.6673669 5 5.4980469 L 5 6.9980469 L 6 6.9980469 L 6 9.9980469 L 1 9.9980469 L 1 6.9980469 L 2 6.9980469 L 2 5.4980469 C 2 4.6673169 2.669 4 3.5 4 z M 3.5 4.9980469 C 3.223 4.9980469 3 5.2211369 3 5.4980469 L 3 6.9980469 L 4 6.9980469 L 4 5.4980469 C 4 5.2211369 3.777 4.9980469 3.5 4.9980469 z M 9 5.9980469 L 15 5.9980469 L 15 6.9980469 L 9 6.9980469 L 9 5.9980469 z M 12 10 L 12 12 L 10 12 L 10 14 L 12 14 L 12 16 L 14 16 L 14 14 L 16 14 L 16 12 L 14 12 L 14 10 L 12 10 z" transform="translate(3 3)"/>
</svg>
